src/sources/forus-platform/resources/_platform-common/assets/img/features/icons/email-connection/icon-step-4.svg

<svg width="24" height="24" viewBox="0 0 24 25" fill="none" xmlns="http://www.w3.org/2000/svg">
    <path d="M9 1.965V6.875H7V1.965C4.16 2.445 2 4.905 2 7.875C2 10.095 3.21 12.025 5 13.065V21.875C5 22.425 5.45 22.875 6 22.875H10C10.55 22.875 11 22.425 11 21.875V13.065C12.79 12.025 14 10.095 14 7.875C14 4.905 11.84 2.445 9 1.965ZM10 11.335L9 11.915V20.875H7L7 11.915L6 11.335C4.77 10.615 4 9.295 4 7.875C4 6.875 4.37 5.935 5 5.225V8.875H11V5.225C11.63 5.935 12 6.875 12 7.875C12 9.295 11.23 10.615 10 11.335ZM20.94 18.815C20.96 18.665 20.97 18.525 20.97 18.375C20.97 18.225 20.96 18.075 20.94 17.925L21.91 17.195C22 17.125 22.03 17.005 21.97 16.905L21.05 15.345C21 15.245 20.87 15.205 20.76 15.245L19.61 15.695C19.37 15.525 19.12 15.375 18.83 15.255L18.66 14.065C18.64 13.955 18.54 13.875 18.43 13.875H16.58C16.46 13.875 16.36 13.955 16.34 14.065L16.17 15.255C15.88 15.375 15.63 15.525 15.39 15.695L14.24 15.245C14.14 15.205 14 15.245 13.96 15.345L13.03 16.905C12.97 17.005 13 17.125 13.09 17.195L14.06 17.925C14.05 18.075 14.03 18.225 14.03 18.375C14.03 18.525 14.05 18.665 14.06 18.815L13.09 19.555C13 19.625 12.97 19.745 13.03 19.845L13.96 21.405C14 21.505 14.14 21.535 14.24 21.505L15.39 21.045C15.63 21.225 15.88 21.375 16.17 21.495L16.34 22.685C16.36 22.795 16.46 22.875 16.58 22.875H18.43C18.54 22.875 18.64 22.795 18.66 22.685L18.83 21.495C19.12 21.375 19.37 21.225 19.61 21.045L20.76 21.505C20.87 21.535 21 21.505 21.05 21.405L21.97 19.845C22.03 19.745 22 19.625 21.91 19.555L20.94 18.815ZM17.5 19.875C16.67 19.875 16 19.205 16 18.375C16 17.545 16.67 16.875 17.5 16.875C18.33 16.875 19 17.545 19 18.375C19 19.205 18.33 19.875 17.5 19.875Z" fill="white"/>
</svg>

<svg width="24" height="24" viewBox="0 0 24 25" fill="none" xmlns="http://www.w3.org/2000/svg"><path d="M9 1.965v4.91H7v-4.91c-2.84.48-5 2.94-5 5.91 0 2.22 1.21 4.15 3 5.19v8.81c0 .55.45 1 1 1h4c.55 0 1-.45 1-1v-8.81c1.79-1.04 3-2.97 3-5.19 0-2.97-2.16-5.43-5-5.91Zm1 9.37-1 .58v8.96H7v-8.96l-1-.58c-1.23-.72-2-2.04-2-3.46 0-1 .37-1.94 1-2.65v3.65h6v-3.65c.63.71 1 1.65 1 2.65 0 1.42-.77 2.74-2 3.46Zm10.94 7.48a3.253 3.253 0 0 0 0-.89l.97-.73a.22.22 0 0 0 .06-.29l-.92-1.56c-.05-.1-.18-.14-.29-.1l-1.15.45c-.24-.17-.49-.32-.78-.44l-.17-1.19a.235.235 0 0 0-.23-.19h-1.85c-.12 0-.22.08-.24.19l-.17 1.19c-.29.12-.54.27-.78.44l-1.15-.45c-.1-.04-.24 0-.28.1l-.93 1.56c-.06.1-.03.22.06.29l.97.73c-.01.15-.03.3-.03.45 0 .15.02.29.03.44l-.97.74a.22.22 0 0 0-.06.29l.93 1.56c.04.1.18.13.28.1l1.15-.46c.24.18.49.33.78.45l.17 1.19c.02.11.12.19.24.19h1.85c.11 0 .21-.08.23-.19l.17-1.19c.29-.12.54-.27.78-.45l1.15.46c.11.03.24 0 .29-.1l.92-1.56a.22.22 0 0 0-.06-.29l-.97-.74Zm-3.44 1.06c-.83 0-1.5-.67-1.5-1.5s.67-1.5 1.5-1.5 1.5.67 1.5 1.5-.67 1.5-1.5 1.5Z" fill="#fff"/></svg>
